svgs/sharp-solid/roller-coaster.svg

<svg xmlns="http://www.w3.org/2000/svg" viewBox="0 0 640 512"><!--! Font Awesome Pro 6.6.0 by @fontawesome - https://fontawesome.com License - https://fontawesome.com/license (Commercial License) Copyright 2024 Fonticons, Inc. --><path d="M64 190.1c0-31.8 15.8-60 40-77L104 456l0 24 48 0 0-24 0-359.8c2-.1 4-.2 6.1-.2c14.8 0 29.1 3.5 41.9 9.9L200 456l0 24 48 0 0-24 0-301.3 48 69.1L296 456l0 24 48 0 0-24 0-163.1 20.3 29.2c7.9 11.3 17.2 21.3 27.7 29.8L392 456l0 24 48 0 0-24 0-78.4c13.6 4.2 28 6.4 42.6 6.4l5.4 0 0 72 0 24 48 0 0-24 0-77.6c14.4-4.2 27.8-10.5 40-18.6l0 88.2 0 32 64 0 0-32 0-208s0 0 0 0c0-79.5-64.5-144-144-144l-4 0c-28.9 0-57.3 7.1-82.8 20.7l-51.6 27.5L432 251.3l0-74.2 7.3-3.9c12.7-6.8 26.5-11 40.7-12.5l0 127.3c.9 0 1.7 .1 2.6 .1l13.4 0c12.3 0 23.5-4.6 32-12.2l0-109.1c28.3 12.3 48 40.5 48 73.3c0 0 0 0 0 0c0 44.2-35.8 80-80 80l-13.4 0c-26.2 0-50.8-12.8-65.7-34.4L287.9 99.9C258.4 57.4 209.9 32 158.1 32C70.8 32 0 102.8 0 190.1L0 448l0 32 64 0 0-32 0-257.9z"/></svg>

<svg xmlns="http://www.w3.org/2000/svg" viewBox="0 0 640 512"><!--! Font Awesome Pro 6.4.0 by @fontawesome - https://fontawesome.com License - https://fontawesome.com/license (Commercial License) Copyright 2023 Fonticons, Inc. --><path d="M64 190.1c0-31.8 15.8-60 40-77V456v24h48V456 96.2c2-.1 4-.2 6.1-.2c14.8 0 29.1 3.5 41.9 9.9V456v24h48V456 154.7l48 69.1V456v24h48V456 292.9l20.3 29.2c7.9 11.3 17.2 21.3 27.7 29.8V456v24h48V456 377.6c13.6 4.2 28 6.4 42.6 6.4H488v72 24h48V456 378.4c14.4-4.2 27.8-10.5 40-18.6V448v32h64V448 240h0c0-79.5-64.5-144-144-144h-4c-28.9 0-57.3 7.1-82.8 20.7l-51.6 27.5L432 251.3V177.1l7.3-3.9c12.7-6.8 26.5-11 40.7-12.5V287.9c.9 0 1.7 .1 2.6 .1H496c12.3 0 23.5-4.6 32-12.2V166.7c28.3 12.3 48 40.5 48 73.3h0c0 44.2-35.8 80-80 80H482.6c-26.2 0-50.8-12.8-65.7-34.4L287.9 99.9C258.4 57.4 209.9 32 158.1 32C70.8 32 0 102.8 0 190.1V448v32H64V448 190.1z"/></svg>
